X: 5284
T: Brosna Town
R: waltz
M: 3/4
K: Gmajor
d2|d4 e2|d2 B2 G2|B4 B2|A2 G2 E2|D4 E2|G4 A2|G6|G4 d2|
d4 B2|A2 B2 d2|e4 e2|e2 d2 B2|G4 B2|A4 G2|E6|E4 d2|
d4 B2|A2 B2 d2|e4 e2|e2 d2 B2|G4 B2|A4 G2|E6|E4 d2|
d4 e2|d2 B2 G2|B4 B2|A2 G2 E2|D4 E2|G4 A2|G6|G4||

